src/lib/runemarks/svg/factions-chaos-bladeborn-grashraks-despoilers.svg

<svg xmlns="http://www.w3.org/2000/svg" width="300" height="300" viewBox="0 0 300 300"><title>factions-chaos-bladeborn-grashraks-despoilers</title><path d="M3.025 37.502V20.067c0-1.024 1.477-2 2.358-3.049.881 1.024 2.453 2.096 2.524 3.239 1.144 12.053 7.146 22.508 15.959 29.536l.095.071c7.455 7.884 18.007 12.791 29.726 12.791 10.099 0 19.341-3.645 26.463-9.718l-.071.048c11.576-8.384 24.796-16.554 38.586-23.795l1.811-.858c3.834-2 14.72-9.479 14.482 5.479 0 2.882 0 7.407 2.62.429 6.288-18.364 21.866-12.196 32.965-9.48 13.958 4.669 26.034 10.6 37.158 17.816l-.643-.381c6.98 3.739 6.097 10.98 6.193 17.412 0 3.144.786 6.383 4.43 2.953 5.145-4.812 9.432-3.836 15.53-1.143 4.812 1.954 10.385 3.096 16.245 3.096 14.316 0 27.059-6.812 35.133-17.364l.071-.12 12.625-16.888c1.62 6.646 2.62 14.291 2.715 22.152v.071c-1.072 29.227-23.843 52.782-52.639 55.117l-.214.023c-17.769 1.453-31.631 16.221-31.631 34.205 0 1.714.12 3.359.381 4.978l-.023-.166c.262.976.381 2.143.381 3.311 0 7.693-6.145 13.935-13.815 14.101h-.023c-14.816 2.953-14.554 2.953-15.435 17.412-.786 12.124-2.358 24.2-3.405 36.323 0 2.787-.786 6.526.595 8.289 9.67 11.243 1.382 19.77-3.836 28.559-3.573 5.859-7.121 10.886-11.005 15.673l.166-.262c-3.836 4.621-8.694 8.694-12.553 13.052-.69-4.883-1.762-9.766-2.168-14.625a22.53 22.53 0 0 0-11.218-19.436l-.12-.071a25.06 25.06 0 0 1-8.67-9.195l-.071-.143c-2.787-5.479-.595-21.151-11.504-4.263 0 0-6.717-2.715-6.789-4.263-.048-1.644-.048-3.573-.048-5.525 0-7.908.357-15.744 1.001-23.462l-.071 1.024c0-5.67 2.454-11.243 2.597-16.888 0-11.338 0-11.338-12.457-11.671-14.482 0-19.889-3.573-17.435-17.435 4.025-21.938-12.457-32.394-21.795-46.923-1.382-2.168-6.455-2.501-9.861-3.049-21.986-3.525-40.087-17.388-49.424-36.371l-.19-.381C4.648 60.798 1.6 49.746.075 38.194l-.071-.643 3.025-.048zm111.496 105.804c10.814-2.787 19.008-4.621 27.011-7.218a6.77 6.77 0 0 0 2.763-5.479c0-.286-.023-.572-.048-.858v.023c-1.382-3.834-3.405-8.694-6.646-10.361-5.336-1.834-11.481-2.883-17.864-2.883h-.333c-6.097-.429-15.601 9.766-13.862 16.102 1.31 4.358 6.288 7.574 8.98 10.623v.048zm74.72-5.048c6.288 2.454 12.386 1.31 12.291-6.002-.738-5.931-2.596-11.29-5.336-16.055l.12.214c-1.096-1.334-2.74-2.191-4.597-2.191-.166 0-.334 0-.476.023h.023c-8.408 3.691-15.506 7.55-22.27 11.885l.643-.381c-1.691 1.811-2.692 4.24-2.692 6.932a9.7 9.7 0 0 0 .286 2.381l-.023-.071c1.382 4.358 5.05 5.67 10.289 3.573 2-.452 4.311-.691 6.669-.691 1.857 0 3.668.166 5.455.429l-.381-.048zm-19.269 36.132c0-16.102-6.621-20.365-19.008-14.196l-1.834.976c-3.645 3.096-5.955 7.693-5.955 12.814 0 2.286.476 4.478 1.286 6.455l-.048-.12a70 70 0 0 0 12.72 10.361l.286.166 12.553-16.459z"/></svg>

<?xml version="1.0" encoding="UTF-8" standalone="no"?>
<!DOCTYPE svg PUBLIC "-//W3C//DTD SVG 1.1//EN" "http://www.w3.org/Graphics/SVG/1.1/DTD/svg11.dtd">
<svg width="100%" height="100%" viewBox="0 0 300 300" version="1.1" xmlns="http://www.w3.org/2000/svg" xmlns:xlink="http://www.w3.org/1999/xlink" xml:space="preserve" xmlns:serif="http://www.serif.com/" style="fill-rule:evenodd;clip-rule:evenodd;stroke-linejoin:round;stroke-miterlimit:2;">
    <g transform="matrix(1,0,0,1,-0.004,0.0015)">
        <path d="M3.025,37.502L3.025,20.067C3.025,19.043 4.502,18.067 5.383,17.018C6.264,18.042 7.836,19.114 7.907,20.257C9.051,32.31 15.053,42.765 23.866,49.793L23.961,49.864C31.416,57.748 41.968,62.655 53.687,62.655C63.786,62.655 73.028,59.01 80.15,52.937L80.079,52.985C91.655,44.601 104.875,36.431 118.665,29.19L120.476,28.332C124.31,26.332 135.196,18.853 134.958,33.811C134.958,36.693 134.958,41.218 137.578,34.24C143.866,15.876 159.444,22.044 170.543,24.76C184.501,29.429 196.577,35.36 207.701,42.576L207.058,42.195C214.038,45.934 213.155,53.175 213.251,59.607C213.251,62.751 214.037,65.99 217.681,62.56C222.826,57.748 227.113,58.724 233.211,61.417C238.023,63.371 243.596,64.513 249.456,64.513C263.772,64.513 276.515,57.701 284.589,47.149L284.66,47.029L297.285,30.141C298.905,36.787 299.905,44.432 300,52.293L300,52.364C298.928,81.591 276.157,105.146 247.361,107.481L247.147,107.504C229.378,108.957 215.516,123.725 215.516,141.709C215.516,143.423 215.636,145.068 215.897,146.687L215.874,146.521C216.136,147.497 216.255,148.664 216.255,149.832C216.255,157.525 210.11,163.767 202.44,163.933L202.417,163.933C187.601,166.886 187.863,166.886 186.982,181.345C186.196,193.469 184.624,205.545 183.577,217.668C183.577,220.455 182.791,224.194 184.172,225.957C193.842,237.2 185.554,245.727 180.336,254.516C176.763,260.375 173.215,265.402 169.331,270.189L169.497,269.927C165.661,274.548 160.803,278.621 156.944,282.979C156.254,278.096 155.182,273.213 154.776,268.354C154.759,260.351 150.479,252.936 143.558,248.918L143.438,248.847C139.81,246.573 136.825,243.407 134.768,239.652L134.697,239.509C131.91,234.03 134.102,218.358 123.193,235.246C123.193,235.246 116.476,232.531 116.404,230.983C116.356,229.339 116.356,227.41 116.356,225.458C116.356,217.55 116.713,209.714 117.357,201.996L117.286,203.02C117.286,197.35 119.74,191.777 119.883,186.132C119.883,174.794 119.883,174.794 107.426,174.461C92.944,174.461 87.537,170.888 89.991,157.026C94.016,135.088 77.534,124.632 68.196,110.103C66.814,107.935 61.741,107.602 58.335,107.054C36.349,103.529 18.248,89.666 8.911,70.683L8.721,70.302C4.648,60.798 1.6,49.746 0.075,38.194L0.004,37.551L3.029,37.503L3.025,37.502ZM114.521,143.306C125.335,140.519 133.529,138.685 141.532,136.088C143.274,134.809 144.302,132.77 144.295,130.609C144.295,130.323 144.272,130.037 144.247,129.751L144.247,129.774C142.865,125.94 140.842,121.08 137.601,119.413C132.265,117.579 126.12,116.53 119.737,116.53L119.404,116.53C113.307,116.101 103.803,126.296 105.542,132.632C106.852,136.99 111.83,140.206 114.522,143.255L114.522,143.303L114.521,143.306ZM189.241,138.258C195.529,140.712 201.627,139.568 201.532,132.256C200.794,126.325 198.936,120.966 196.196,116.201L196.316,116.415C195.22,115.081 193.576,114.224 191.719,114.224C191.553,114.224 191.385,114.224 191.243,114.247L191.266,114.247C182.858,117.938 175.76,121.797 168.996,126.132L169.639,125.751C167.948,127.562 166.947,129.991 166.947,132.683C166.943,133.485 167.04,134.285 167.233,135.064L167.21,134.993C168.592,139.351 172.26,140.663 177.499,138.566C179.499,138.114 181.81,137.875 184.168,137.875C186.025,137.875 187.836,138.041 189.623,138.304L189.242,138.256L189.241,138.258ZM169.972,174.39C169.972,158.288 163.351,154.025 150.964,160.194L149.13,161.17C145.485,164.266 143.175,168.863 143.175,173.984C143.175,176.27 143.651,178.462 144.461,180.439L144.413,180.319C148.232,184.259 152.502,187.737 157.133,190.68L157.419,190.846L169.972,174.387L169.972,174.39Z" style="fill-rule:nonzero;"/>
    </g>
</svg>
